X: 633
T: the Flax in Bloom   #2
R: reel
%S: s:4 b:16(4+4+4+4)
B: Francis O'Neill: "The Dance Music of Ireland" (1907) #633
Z: Frank Nordberg - http://www.musicaviva.com
F: http://www.musicaviva.com/abc/tunes/ireland/oneill-1001/0633/oneill-1001-0633-1.abc
M: C|
L: 1/8
K: D
"^A"\
|: D2 (3(FED) FAAf | (3(gfe) (3(fed) edBd |\
[1 (3(ABA) (FA) dfaf | (ga)fd (ed)Bd :|\
[2 (AB)AF ABde | (fa)eg (fd)d2 |]
"^B"\
|: (3(fgf) df (3(efe) ce | dcdB AGFG |\
[1 DFAd FAdf | (3(gfe) (3(fed) edBd :|\
[2 DFAc defg | (af)eg (fd)d2 |]
